X: 3777
T: Bishop Faber MacDonald's
R: strathspey
M: 4/4
K: Adorian
A|E<A,A,>G F<DD>F|G>ED>C B,<G,G,>A|E<A,A,>G F>DD<F|G>ED>B, A,/A,/A, (3A,AA|
E<A,A,>G F<DD>F|G>ED>C B,<G,G,>B,|A,>cA<G E<DE<F|G<ED<B, A,/A,/A, A,||
B,|A,>cA<G E>Ac<e|g<ag<B G2 (3GBB|A/B/c/d/ e>g a<AA<a|g>ef<d e2 (3efg|
a>AA<b g<BB>a|b>ag<B G2 (3GAB|c/B/A/G/ A>B c>ED>F|G>ED>B, A,/A,/A, A,||

